X:10
T:Drowsy Maggie
R:reel
N:Learned from Kira Ott
Z:Michael Abraham Shulman
M:4/4
L:1/8
Q:1/4=220
K:D
"Em"E2BE dEBE|E2BE "D"AFDE|"Em"E2BE dEB2|"G"BABc "D"dAFD|
"Em"E2BE dEBE|E2BE "D"AFDE|"Em"E2BE dEB2|"G"BABc "D"dAFA||
"D"d2fd "A"c2ec|"D"defg "A"agfe|"D"d2fd "A"c2ec|"G"BABc "D"dAFA|
d2fd "A"c2ec|"D"defg "A"a2a2|"G"bgaf gfed|"A"BABc "D"dAFD||



